assets/sonr-icons/bank.svg

<svg xmlns="http://www.w3.org/2000/svg" width="24" height="24" fill="none" viewBox="0 0 24 24"><path fill="#000" d="M6 12C5.448 12 5 12.448 5 13V16C3.895 16 3 16.895 3 18V19C3 20.105 3.896 21 5 21H19C20.105 21 21 20.105 21 19V18C21 16.895 20.105 16 19 16V13C19 12.448 18.552 12 18 12C17.448 12 17 12.448 17 13V16H15V13C15 12.448 14.552 12 14 12C13.448 12 13 12.448 13 13V16H11V13C11 12.448 10.552 12 10 12C9.448 12 9 12.448 9 13V16H7V13C7 12.448 6.552 12 6 12ZM3 7.42395C3 6.57195 3.54 5.81395 4.345 5.53395L11.345 3.10695C11.77 2.95995 12.231 2.95995 12.655 3.10695L19.655 5.53395C20.46 5.81295 21 6.57095 21 7.42395V8.00095C21 9.10595 20.104 10.001 19 10.001H5C3.895 10.001 3 9.10495 3 8.00095V7.42395Z"/></svg>

<svg xmlns="http://www.w3.org/2000/svg" width="24" height="24" fill="none"><path fill="currentColor" d="M6 12a1 1 0 0 0-1 1v3a2 2 0 0 0-2 2v1a2 2 0 0 0 2 2h14a2 2 0 0 0 2-2v-1a2 2 0 0 0-2-2v-3a1 1 0 0 0-2 0v3h-2v-3a1 1 0 0 0-2 0v3h-2v-3a1 1 0 0 0-2 0v3H7v-3a1 1 0 0 0-1-1M3 7.424c0-.852.54-1.61 1.345-1.89l7-2.427a2 2 0 0 1 1.31 0l7 2.427A2 2 0 0 1 21 7.424V8a2 2 0 0 1-2 2H5a2 2 0 0 1-2-2z"/></svg>
